public/illustrations/_virus.svg

<svg width="238" height="226" viewBox="0 0 238 226" fill="none" xmlns="http://www.w3.org/2000/svg">
<path d="M153.507 12.6521C151.808 11.9442 150.392 11.3781 149.118 10.8118C146.003 9.3959 144.87 6.9888 145.578 4.29867C146.286 1.60853 149.118 0.0510176 152.374 1.04212C159.312 3.30749 166.25 5.85611 173.046 8.54624C173.612 8.68783 174.32 9.11252 174.745 9.53728C175.17 9.96204 175.594 10.5285 175.878 11.0949C176.161 11.6612 176.303 12.3692 176.444 12.9355C176.444 13.6435 176.444 14.2097 176.161 14.9176C175.311 17.4662 173.046 18.7405 169.931 18.1742C167.807 17.6078 165.542 17.0414 163.56 16.3335C158.746 27.2356 154.357 38.2793 149.543 49.6062C162.71 55.128 173.895 64.4727 181.541 76.5075L199.098 68.5786C198.815 67.4459 198.39 66.3132 198.107 65.0389C197.399 61.924 198.532 59.2339 201.08 58.3844C201.646 58.1013 202.354 58.1013 203.062 58.1013C203.77 58.1013 204.337 58.243 205.045 58.5262C205.611 58.8093 206.177 59.2342 206.744 59.6589C207.168 60.2253 207.593 60.7915 207.735 61.3579C210.283 67.1629 212.549 72.9678 214.673 78.9144C214.956 79.6223 215.097 80.3303 215.239 81.0382C215.239 81.7461 215.239 82.454 214.814 83.162C214.531 83.8699 214.106 84.4362 213.681 84.8609C213.115 85.4273 212.549 85.7105 211.841 85.9937C209.292 86.9848 206.743 85.8522 205.186 82.8789C204.336 81.463 203.77 79.9055 202.921 78.2065L186.355 85.8523C192.019 99.8693 192.585 115.444 188.196 130.027L225.999 142.062C226.707 140.08 227.273 138.522 227.84 137.106C229.114 133.991 231.805 132.434 234.495 133.284C237.185 134.133 238.742 137.248 237.609 140.646C235.627 147.017 233.362 153.247 231.238 159.618C230.955 160.468 230.53 161.317 230.105 162.025C229.397 162.875 228.548 163.583 227.557 163.866C226.566 164.149 225.433 164.149 224.3 163.866C223.309 163.583 222.46 163.016 221.893 162.025C221.327 161.176 221.044 160.185 221.185 159.052C221.468 156.645 221.893 154.38 222.46 151.973C210.142 147.725 197.399 143.903 184.231 139.655C179.559 148.716 173.046 156.787 164.975 163.017C156.905 169.246 147.56 173.635 137.508 175.901C139.915 187.511 142.463 198.979 144.87 210.872C146.994 210.589 148.976 210.165 150.959 210.023C152.233 209.882 153.507 209.882 154.781 210.023C155.772 210.165 156.622 210.589 157.33 211.439C158.038 212.289 158.462 213.138 158.462 213.988C158.604 214.979 158.462 215.97 158.179 216.819C157.755 217.669 157.047 218.377 156.197 218.943C154.923 219.651 153.649 220.217 152.233 220.5C145.012 222.058 137.649 223.615 130.287 225.031C129.154 225.314 128.022 225.314 126.889 225.173C125.756 225.173 124.765 224.465 124.057 223.757C123.208 222.907 122.783 221.916 122.641 220.783C122.5 219.651 122.641 218.518 123.349 217.669C123.916 216.678 124.765 215.97 125.897 215.545C127.596 214.979 129.296 214.554 131.136 214.129C132.269 213.846 133.402 213.704 134.676 213.28C132.128 201.245 129.579 189.493 127.03 177.6C108.624 178.166 92.1999 173.352 77.758 161.459C68.4133 171.087 59.0689 180.715 49.7242 190.342C51.5648 192.042 53.5467 193.599 55.1042 195.44C56.2369 196.572 57.0865 197.988 57.6528 199.546C57.936 200.537 57.936 201.528 57.6528 202.377C57.3696 203.227 56.6616 204.076 55.8121 204.501C54.1131 205.775 52.6973 205.209 51.2814 204.077C47.8833 201.528 44.3437 199.263 41.0872 196.572C37.5476 193.741 34.4325 190.626 31.0345 187.511C30.4681 187.086 30.0433 186.661 29.6186 186.095C27.6364 183.688 27.4949 180.715 29.3355 178.732C30.185 177.741 31.4595 177.175 32.7338 177.175C34.008 177.175 35.2821 177.458 36.4148 178.308C38.2554 179.582 39.9545 181.281 42.0783 183.122L70.1125 153.814C59.6351 141.212 54.1132 125.213 54.538 108.931L11.7789 101.002C11.3541 101.993 10.9293 102.843 10.6461 103.834C10.363 104.825 10.2214 105.816 9.93819 106.807C9.65502 107.939 8.80536 109.072 7.67267 109.638C6.53998 110.346 5.40728 110.488 4.133 110.205C2.85872 109.922 1.7261 109.214 1.01817 108.223C0.310235 107.232 -0.114455 105.816 0.0271314 104.542C1.30141 97.1791 2.57555 89.8167 4.133 82.5958C4.27459 81.8878 4.5579 81.3214 4.98266 80.7551C5.40742 80.1887 5.83232 79.764 6.54025 79.3392C7.1066 79.0561 7.81425 78.7729 8.3806 78.6313H10.363C11.6373 79.0561 12.6282 79.9057 13.3361 80.8968C14.0441 82.0295 14.3274 83.3036 14.1858 84.5778C14.0442 86.2769 13.6193 88.1175 13.3361 90.2413L55.9538 97.8871C59.6351 81.4631 69.1214 66.8797 82.8553 57.1103C77.475 43.3765 72.0947 29.7842 66.5728 16.0504C64.8738 16.7583 63.458 17.4661 62.0421 18.0324C58.7856 19.1651 55.9538 18.0324 54.8211 15.4838C53.6884 12.9353 54.821 9.9621 57.9359 8.54624C63.8825 5.71453 69.971 3.16584 75.9177 0.617292C76.6256 0.33412 77.3333 0.192673 78.1829 0.0510867C79.3155 -0.0904993 80.4482 0.0509484 81.2977 0.617292C82.2888 1.18364 82.9967 2.03343 83.4215 3.02453C83.8462 4.01563 83.9881 5.14804 83.7049 6.28073C83.4218 7.41342 82.7138 8.26314 81.8642 8.97107C80.1652 10.1038 78.3245 11.2364 76.4839 12.0859L92.0584 51.73C107.208 44.3675 122.924 42.9515 139.49 45.9248C144.304 34.4563 148.834 23.5545 153.507 12.2276V12.6521ZM96.306 62.2072C97.4387 65.0389 98.4297 67.5877 99.4208 70.2779C100.837 73.8175 102.394 77.3569 103.385 81.0382C103.81 82.3125 103.669 83.5867 103.102 84.8609C102.536 85.9936 101.545 86.8434 100.271 87.2682C99.1378 87.6929 97.8635 87.5514 96.7308 87.2682C95.5981 86.8434 94.6068 85.9936 94.0405 84.8609C93.4741 83.7282 92.908 82.5956 92.4832 81.3213C90.6426 76.9321 88.9435 72.5432 87.1029 68.1541C77.3334 74.3839 66.5728 91.9404 67.2808 100.294C67.8471 100.436 68.4134 100.719 68.9797 100.86C73.2273 101.568 77.3334 102.276 81.4394 103.126C84.8375 103.975 86.6782 106.382 86.1118 109.214C85.5455 112.046 82.8553 113.886 79.3156 113.462C77.3334 113.178 75.2095 112.753 73.2273 112.47C70.6788 112.045 68.2719 111.621 65.8649 111.338C63.3163 119.55 71.3866 141.92 78.466 146.168C79.7402 144.893 81.0148 143.336 82.2891 142.062C84.8376 139.372 87.3862 136.681 90.0763 134.133C92.7665 131.584 95.7396 131.301 98.005 133.567C100.27 135.832 99.9873 138.805 97.4388 141.495C95.0318 144.185 92.0585 147.017 89.3684 149.849C88.0941 151.265 86.8196 152.539 85.5453 153.955C93.6157 163.016 116.836 169.954 124.765 166.556C124.199 164.008 123.632 161.318 123.066 158.769C122.358 155.371 121.508 151.973 121.084 148.575C121.084 147.3 121.225 146.168 122.075 145.035C122.783 144.044 123.915 143.336 125.048 143.053C126.181 142.77 127.455 143.053 128.588 143.619C129.721 144.185 130.428 145.177 130.853 146.309C131.136 147.017 131.419 147.725 131.561 148.433C132.127 151.265 132.694 153.955 133.26 156.787C133.827 159.618 134.676 162.592 135.384 165.99C152.374 161.601 165.117 152.397 173.896 136.965C172.196 136.398 170.922 135.832 169.648 135.407C162.993 133.284 156.339 131.301 149.826 129.036C147.985 128.47 146.286 127.762 144.587 126.771C143.738 126.204 143.03 125.355 142.746 124.364C142.463 123.373 142.463 122.24 142.746 121.249C143.03 120.258 143.596 119.408 144.445 118.7C145.295 118.134 146.286 117.709 147.419 117.709C148.976 117.709 150.534 117.992 151.95 118.558C158.604 120.682 165.117 122.806 171.772 124.93C173.754 125.638 175.878 126.063 178.285 126.771C181.683 114.311 181.541 102.559 176.586 90.6661C175.594 91.0909 175.028 91.2326 174.462 91.5157L140.198 107.373C135.242 109.639 130.429 111.904 125.473 114.028C124.34 114.453 122.924 114.594 121.792 114.028C120.517 113.603 119.526 112.753 118.96 111.479C118.394 110.346 118.252 108.931 118.677 107.798C119.102 106.524 119.809 105.533 120.942 104.825C122.641 103.834 124.34 102.984 126.039 102.276C140.339 95.6215 154.498 89.1087 168.798 82.5958C169.648 82.171 170.497 81.7463 171.347 81.1799C167.382 72.8263 153.365 61.641 145.436 60.2251C145.153 60.7915 144.729 61.4993 144.445 62.2072C142.038 68.0122 139.631 73.8173 137.224 79.6223C136.658 81.0382 135.95 82.4543 135.242 83.7285C134.676 84.8612 133.685 85.5689 132.411 85.9937C131.278 86.4185 130.004 86.2769 128.871 85.9937C127.738 85.4274 126.889 84.5778 126.322 83.4451C125.756 82.3124 125.756 81.0381 126.039 79.9054C126.464 78.4896 126.889 77.2156 127.455 75.9413C129.72 70.4194 131.986 65.039 134.251 59.5172C134.534 58.5261 134.817 57.6766 135.101 56.6855C121.367 53.2874 104.093 57.1104 96.306 62.4906V62.2072Z" fill="#102185"/>
<path d="M128.163 120.966C131.136 120.966 133.401 123.373 133.401 126.771C133.401 127.479 133.401 128.187 133.118 128.895C132.835 129.603 132.552 130.169 132.127 130.735C131.702 131.302 131.136 131.726 130.428 132.009C129.72 132.293 129.154 132.576 128.446 132.576C125.472 132.576 123.207 130.169 123.207 126.771C123.207 126.063 123.207 125.355 123.49 124.789C123.632 124.081 124.056 123.514 124.481 122.948C124.906 122.382 125.473 121.957 126.18 121.674C126.747 121.39 127.455 121.249 128.163 121.107V120.966Z" fill="#102185"/>
<path d="M156.621 76.5074C156.621 77.2153 156.621 77.7815 156.338 78.4894C156.055 79.0558 155.772 79.764 155.347 80.1887C154.922 80.7551 154.356 81.038 153.79 81.3212C153.223 81.6043 152.515 81.746 151.807 81.746C150.391 81.746 149.117 81.1798 148.126 80.1887C147.135 79.1976 146.569 77.9232 146.427 76.5074C146.427 75.7994 146.427 75.0915 146.71 74.3836C146.994 73.6756 147.276 73.1092 147.843 72.5429C148.268 71.9765 148.976 71.5517 149.542 71.4101C150.25 71.127 150.958 70.9854 151.666 71.127C152.374 71.127 153.082 71.2687 153.648 71.5519C154.356 71.835 154.922 72.2599 155.347 72.6846C155.772 73.251 156.197 73.8172 156.48 74.3836C156.763 75.0915 156.904 75.7993 156.763 76.3656L156.621 76.5074Z" fill="#102185"/>
<path d="M149.259 150.132C148.551 150.132 147.843 150.133 147.135 149.849C146.427 149.566 145.861 149.283 145.295 148.717C144.729 148.292 144.304 147.584 144.021 147.018C143.737 146.31 143.596 145.602 143.596 144.894C143.596 144.186 143.737 143.478 144.021 142.77C144.304 142.062 144.729 141.496 145.295 141.071C145.861 140.646 146.427 140.222 147.135 139.938C147.843 139.655 148.551 139.655 149.259 139.655C149.967 139.655 150.534 139.655 151.242 139.938C151.95 140.222 152.516 140.505 152.941 140.929C153.365 141.354 153.79 141.92 154.073 142.628C154.356 143.195 154.498 143.903 154.356 144.611C154.356 145.319 154.356 146.027 154.073 146.735C153.79 147.443 153.507 148.009 152.941 148.434C152.516 149 151.808 149.424 151.242 149.708C150.675 149.991 149.967 150.132 149.259 150.132Z" fill="#102185"/>
<path d="M118.11 69.1451C118.11 69.8531 118.11 70.561 117.827 71.2689C117.544 71.9769 117.261 72.5433 116.836 73.1096C116.411 73.676 115.845 74.1006 115.137 74.3838C114.571 74.6669 113.863 74.8086 113.155 74.8086C112.447 74.8086 111.739 74.8085 111.173 74.3838C110.606 74.1006 109.898 73.6758 109.474 73.251C109.049 72.6847 108.624 72.1184 108.341 71.552C108.058 70.8441 108.058 70.2779 108.058 69.57C108.058 68.1541 108.483 66.8797 109.474 65.8886C110.465 64.8975 111.739 64.331 113.013 64.331C113.721 64.331 114.429 64.3313 114.995 64.6145C115.562 64.8976 116.27 65.1805 116.694 65.7469C117.119 66.1716 117.544 66.8798 117.827 67.4462C118.11 68.0125 118.11 68.7203 118.11 69.4283V69.1451Z" fill="#102185"/>
<path d="M114.995 148.433C114.995 149.141 114.995 149.707 114.57 150.274C114.287 150.84 114.004 151.406 113.438 151.831C113.013 152.256 112.447 152.68 111.88 152.822C111.314 153.105 110.606 153.106 110.04 153.106C108.624 153.106 107.35 152.539 106.5 151.548C105.509 150.557 105.084 149.282 105.084 147.867C105.084 146.592 105.651 145.318 106.642 144.469C107.633 143.619 108.766 143.053 110.04 143.053C111.456 143.053 112.73 143.761 113.579 144.752C114.571 145.743 114.995 147.017 114.995 148.433Z" fill="#102185"/>
<path d="M173.613 109.639C173.613 110.913 173.047 112.188 172.197 113.037C171.348 114.028 170.073 114.453 168.799 114.453C168.091 114.453 167.525 114.453 166.817 114.028C166.25 113.745 165.684 113.32 165.118 112.896C164.693 112.329 164.268 111.763 164.126 111.197C163.985 110.63 163.843 109.922 163.843 109.215C163.843 107.94 164.551 106.666 165.542 105.816C166.533 104.967 167.808 104.4 169.082 104.4C170.356 104.4 171.631 105.108 172.48 105.958C173.33 106.949 173.896 108.223 173.754 109.498L173.613 109.639Z" fill="#102185"/>
<path d="M100.129 110.488C98.8544 110.488 97.5801 110.064 96.589 109.214C95.5979 108.365 95.0316 107.09 94.89 105.816C94.89 105.108 94.89 104.542 95.1731 103.834C95.4563 103.267 95.7394 102.701 96.1642 102.135C96.5889 101.71 97.1556 101.285 97.8635 101.002C98.4298 100.719 99.1376 100.577 99.8456 100.577C101.12 100.577 102.394 101.144 103.243 101.993C104.093 102.843 104.66 104.117 104.801 105.391C104.801 106.665 104.376 107.94 103.385 108.789C102.536 109.639 101.262 110.205 99.9873 110.347L100.129 110.488Z" fill="#102185"/>
<path d="M81.7225 85.2859C82.7137 85.2859 83.5634 85.5691 84.4129 85.9938C85.2624 86.5602 85.8285 87.2681 86.2533 88.1176C86.678 88.9671 86.8197 89.9582 86.6781 90.9493C86.5365 91.9404 86.1119 92.79 85.4039 93.498C84.696 94.2059 83.8466 94.6306 82.997 94.9138C82.0059 95.197 81.0148 95.0553 80.1653 94.7721C79.3158 94.4889 78.4661 93.7811 77.8998 93.0731C77.3334 92.2236 77.0501 91.3742 77.0501 90.3831C77.0501 89.8168 77.0504 89.1088 77.3336 88.5424C77.6167 87.9761 77.8998 87.4096 78.3246 86.9849C78.7494 86.5601 79.3155 86.1356 79.8819 85.8524C80.4482 85.5693 81.1562 85.4276 81.7225 85.4276V85.2859Z" fill="#102185"/>
</svg>

<svg xmlns="http://www.w3.org/2000/svg" width="238" height="226" fill="none" viewBox="0 0 238 226"><path fill="#102185" d="M153.507 12.652c-1.699-.708-3.115-1.274-4.389-1.84-3.115-1.416-4.248-3.823-3.54-6.513s3.54-4.248 6.796-3.257c6.938 2.265 13.876 4.814 20.672 7.504.566.142 1.274.567 1.699.991s.849.991 1.133 1.558c.283.566.425 1.274.566 1.84 0 .708 0 1.275-.283 1.983-.85 2.548-3.115 3.823-6.23 3.256-2.124-.566-4.389-1.133-6.371-1.84-4.814 10.902-9.203 21.945-14.017 33.272 13.167 5.522 24.352 14.867 31.998 26.901l17.557-7.928c-.283-1.133-.708-2.266-.991-3.54-.708-3.115.425-5.805 2.973-6.655.566-.283 1.274-.283 1.982-.283s1.275.142 1.983.425c.566.283 1.132.708 1.699 1.133.424.566.849 1.133.991 1.699 2.548 5.805 4.814 11.61 6.938 17.556.283.708.424 1.416.566 2.124 0 .708 0 1.416-.425 2.124a5.1 5.1 0 0 1-1.133 1.699c-.566.566-1.132.85-1.84 1.133-2.549.99-5.098-.142-6.655-3.115-.85-1.416-1.416-2.974-2.265-4.672l-16.566 7.645c5.664 14.017 6.23 29.592 1.841 44.175l37.803 12.035c.708-1.982 1.274-3.54 1.841-4.956 1.274-3.115 3.965-4.672 6.655-3.822s4.247 3.964 3.114 7.362c-1.982 6.371-4.247 12.601-6.371 18.972-.283.85-.708 1.699-1.133 2.407-.708.85-1.557 1.558-2.548 1.841s-2.124.283-3.257 0c-.991-.283-1.84-.85-2.407-1.841a4.27 4.27 0 0 1-.708-2.973c.283-2.407.708-4.672 1.275-7.079-12.318-4.248-25.061-8.07-38.229-12.318-4.672 9.061-11.185 17.132-19.256 23.362s-17.415 10.618-27.467 12.884c2.407 11.61 4.955 23.078 7.362 34.971 2.124-.283 4.106-.707 6.089-.849a17.3 17.3 0 0 1 3.822 0c.991.142 1.841.566 2.549 1.416s1.132 1.699 1.132 2.549c.142.991 0 1.982-.283 2.831-.424.85-1.132 1.558-1.982 2.124-1.274.708-2.548 1.274-3.964 1.557-7.221 1.558-14.584 3.115-21.946 4.531-1.133.283-2.265.283-3.398.142-1.133 0-2.124-.708-2.832-1.416-.849-.85-1.274-1.841-1.416-2.974-.141-1.132 0-2.265.708-3.114q.85-1.487 2.548-2.124c1.699-.566 3.399-.991 5.239-1.416 1.133-.283 2.266-.425 3.54-.849-2.548-12.035-5.097-23.787-7.646-35.68-18.406.566-34.83-4.248-49.272-16.141l-28.034 28.883c1.84 1.7 3.823 3.257 5.38 5.098 1.133 1.132 1.983 2.548 2.549 4.106.283.991.283 1.982 0 2.831-.283.85-.991 1.699-1.84 2.124-1.7 1.274-3.116.708-4.532-.424-3.398-2.549-6.937-4.814-10.194-7.505-3.54-2.831-6.655-5.946-10.053-9.061a6.7 6.7 0 0 1-1.415-1.416c-1.983-2.407-2.124-5.38-.284-7.363a4.52 4.52 0 0 1 3.399-1.557c1.274 0 2.548.283 3.68 1.133 1.841 1.274 3.54 2.973 5.664 4.814l28.034-29.308a67.54 67.54 0 0 1-15.574-44.883l-42.76-7.929c-.424.991-.849 1.841-1.132 2.832s-.425 1.982-.708 2.973c-.283 1.132-1.133 2.265-2.265 2.831-1.133.708-2.266.85-3.54.567s-2.407-.991-3.115-1.982-1.132-2.407-.99-3.681C1.3 97.179 2.575 89.817 4.132 82.596c.142-.708.425-1.275.85-1.84a5.05 5.05 0 0 1 1.557-1.417c.567-.283 1.274-.566 1.84-.708h1.983c1.274.425 2.265 1.275 2.973 2.266a5.7 5.7 0 0 1 .85 3.68c-.142 1.7-.567 3.54-.85 5.664l42.618 7.646C59.635 81.463 69.12 66.88 82.855 57.11a4941 4941 0 0 0-16.282-41.06c-1.7.708-3.115 1.416-4.53 1.982-3.257 1.133-6.09 0-7.222-2.548s0-5.522 3.115-6.938C63.883 5.715 69.97 3.166 75.918.617c.708-.283 1.415-.424 2.265-.566 1.132-.141 2.265 0 3.115.566a5 5 0 0 1 2.123 2.408c.425.99.567 2.123.284 3.256s-.991 1.982-1.84 2.69c-1.7 1.133-3.54 2.265-5.381 3.115L92.058 51.73c15.15-7.362 30.866-8.778 47.432-5.805a5857 5857 0 0 0 14.017-33.697zM96.306 62.207a307 307 0 0 1 3.115 8.07c1.416 3.54 2.973 7.08 3.964 10.761.425 1.275.284 2.549-.283 3.823-.566 1.133-1.557 1.982-2.831 2.407-1.133.425-2.407.283-3.54 0a4.97 4.97 0 0 1-2.69-2.407c-.567-1.133-1.133-2.265-1.558-3.54-1.84-4.389-3.54-8.778-5.38-13.167-9.77 6.23-20.53 23.786-19.822 32.14.566.142 1.132.425 1.699.566 4.247.708 8.353 1.416 12.46 2.266 3.398.849 5.238 3.256 4.672 6.088s-3.257 4.672-6.796 4.248c-1.983-.284-4.106-.709-6.089-.992-2.548-.425-4.955-.849-7.362-1.132-2.549 8.212 5.522 30.582 12.601 34.83 1.274-1.275 2.549-2.832 3.823-4.106 2.549-2.69 5.097-5.381 7.787-7.929s5.664-2.832 7.929-.566 1.982 5.238-.566 7.928c-2.407 2.69-5.38 5.522-8.07 8.354-1.275 1.416-2.55 2.69-3.824 4.106 8.07 9.061 31.291 15.999 39.22 12.601-.566-2.548-1.133-5.238-1.699-7.787-.708-3.398-1.558-6.796-1.982-10.194 0-1.275.141-2.407.991-3.54.708-.991 1.84-1.699 2.973-1.982s2.407 0 3.54.566 1.84 1.558 2.265 2.69c.283.708.566 1.416.708 2.124.566 2.832 1.133 5.522 1.699 8.354s1.416 5.805 2.124 9.203c16.99-4.389 29.733-13.593 38.512-29.025-1.7-.567-2.974-1.133-4.248-1.558-6.655-2.123-13.309-4.106-19.822-6.371-1.841-.566-3.54-1.274-5.239-2.265-.849-.567-1.557-1.416-1.841-2.407a5.8 5.8 0 0 1 0-3.115q.426-1.487 1.699-2.549c.85-.566 1.841-.991 2.974-.991 1.557 0 3.115.283 4.531.849 6.654 2.124 13.167 4.248 19.822 6.372 1.982.708 4.106 1.133 6.513 1.841 3.398-12.46 3.256-24.212-1.699-36.105-.992.425-1.558.567-2.124.85l-34.264 15.857c-4.956 2.266-9.769 4.531-14.725 6.655-1.133.425-2.549.566-3.681 0-1.275-.425-2.266-1.275-2.832-2.549-.566-1.133-.708-2.548-.283-3.681.425-1.274 1.132-2.265 2.265-2.973a43 43 0 0 1 5.097-2.549 5742 5742 0 0 1 42.759-19.68c.85-.425 1.699-.85 2.549-1.416-3.965-8.354-17.982-19.539-25.911-20.955-.283.566-.707 1.274-.991 1.982l-7.221 17.415c-.566 1.416-1.274 2.832-1.982 4.106-.566 1.133-1.557 1.84-2.831 2.266-1.133.424-2.407.283-3.54 0a5.56 5.56 0 0 1-2.549-2.549c-.566-1.133-.566-2.407-.283-3.54.425-1.415.85-2.69 1.416-3.964 2.265-5.522 4.531-10.902 6.796-16.424.283-.99.566-1.84.85-2.832-13.734-3.398-31.008.425-38.795 5.806z"/><path fill="#102185" d="M128.163 120.966c2.973 0 5.238 2.407 5.238 5.805 0 .708 0 1.416-.283 2.124s-.566 1.274-.991 1.84q-.637.85-1.699 1.274c-.708.284-1.274.567-1.982.567-2.974 0-5.239-2.407-5.239-5.805 0-.708 0-1.416.283-1.982.142-.708.566-1.275.991-1.841q.638-.85 1.699-1.274c.567-.284 1.275-.425 1.983-.567zM156.621 76.507c0 .708 0 1.274-.283 1.982-.283.567-.566 1.275-.991 1.7-.425.566-.991.849-1.557 1.132-.567.283-1.275.425-1.983.425-1.416 0-2.69-.566-3.681-1.557s-1.557-2.266-1.699-3.682c0-.708 0-1.416.283-2.123.284-.708.566-1.275 1.133-1.841.425-.567 1.133-.991 1.699-1.133.708-.283 1.416-.425 2.124-.283.708 0 1.416.142 1.982.425a5.1 5.1 0 0 1 1.699 1.133c.425.566.85 1.132 1.133 1.699.283.707.424 1.415.283 1.982zM149.259 150.132c-.708 0-1.416.001-2.124-.283-.708-.283-1.274-.566-1.84-1.132-.566-.425-.991-1.133-1.274-1.699a5.7 5.7 0 0 1-.425-2.124q0-1.062.425-2.124t1.274-1.699c.566-.425 1.132-.849 1.84-1.133.708-.283 1.416-.283 2.124-.283s1.275 0 1.983.283c.708.284 1.274.567 1.699.991a5.1 5.1 0 0 1 1.132 1.699c.283.567.425 1.275.283 1.983 0 .708 0 1.416-.283 2.124s-.566 1.274-1.132 1.699c-.425.566-1.133.99-1.699 1.274-.567.283-1.275.424-1.983.424M118.11 69.145c0 .708 0 1.416-.283 2.124s-.566 1.274-.991 1.84q-.637.85-1.699 1.275c-.566.283-1.274.425-1.982.425s-1.416 0-1.982-.425c-.567-.283-1.275-.708-1.699-1.133-.425-.566-.85-1.133-1.133-1.699-.283-.708-.283-1.274-.283-1.982 0-1.416.425-2.69 1.416-3.681s2.265-1.558 3.539-1.558c.708 0 1.416 0 1.982.284.567.283 1.275.566 1.699 1.132.425.425.85 1.133 1.133 1.7.283.566.283 1.273.283 1.981zM114.995 148.433c0 .708 0 1.274-.425 1.841-.283.566-.566 1.132-1.132 1.557-.425.425-.991.849-1.558.991-.566.283-1.274.284-1.84.284-1.416 0-2.69-.567-3.54-1.558-.991-.991-1.416-2.266-1.416-3.681 0-1.275.567-2.549 1.558-3.398s2.124-1.416 3.398-1.416c1.416 0 2.69.708 3.539 1.699.992.991 1.416 2.265 1.416 3.681M173.613 109.639c0 1.274-.566 2.549-1.416 3.398-.849.991-2.124 1.416-3.398 1.416-.708 0-1.274 0-1.982-.425-.567-.283-1.133-.708-1.699-1.132-.425-.567-.85-1.133-.992-1.699-.141-.567-.283-1.275-.283-1.982 0-1.275.708-2.549 1.699-3.399.991-.849 2.266-1.416 3.54-1.416s2.549.708 3.398 1.558c.85.991 1.416 2.265 1.274 3.54zM100.129 110.488c-1.275 0-2.549-.424-3.54-1.274-.991-.849-1.557-2.124-1.699-3.398 0-.708 0-1.274.283-1.982.283-.567.566-1.133.991-1.699.425-.425.992-.85 1.7-1.133.566-.283 1.274-.425 1.982-.425 1.274 0 2.548.567 3.397 1.416.85.85 1.417 2.124 1.558 3.398 0 1.274-.425 2.549-1.416 3.398-.849.85-2.123 1.416-3.398 1.558zM81.723 85.286c.99 0 1.84.283 2.69.708.85.566 1.416 1.274 1.84 2.124s.567 1.84.425 2.831a4.4 4.4 0 0 1-1.274 2.549c-.708.708-1.557 1.133-2.407 1.416-.991.283-1.982.141-2.832-.142s-1.699-.99-2.265-1.699c-.567-.85-.85-1.699-.85-2.69 0-.566 0-1.274.284-1.84.283-.567.566-1.133.99-1.558s.992-.85 1.558-1.133a4.4 4.4 0 0 1 1.84-.424z"/></svg>
